raw/symbols/elrond.svg

<svg width="42" height="42" viewBox="0 0 42 42" fill="none" xmlns="http://www.w3.org/2000/svg">
<path d="M21 41C32.0457 41 41 32.0457 41 21C41 9.9543 32.0457 1 21 1C9.9543 1 1 9.9543 1 21C1 32.0457 9.9543 41 21 41Z" fill="#F3F3F3"/>
<path fill-rule="evenodd" clip-rule="evenodd" d="M28.2108 13.7701C28.1169 13.6762 28.0605 13.5823 28.0605 13.4509C28.0605 13.3194 28.1169 13.2255 28.2108 13.1316C28.3986 12.9626 28.699 12.9626 28.9056 13.1316C28.9995 13.2255 29.0558 13.3194 29.0558 13.4509C29.0558 13.5823 28.9995 13.6762 28.9056 13.7701C28.8117 13.8452 28.6803 13.9016 28.5676 13.9016C28.4361 13.9204 28.3047 13.8828 28.2108 13.7701Z" fill="#030303"/>
<path fill-rule="evenodd" clip-rule="evenodd" d="M27.0094 15.066C26.9343 14.9721 26.8779 14.8782 26.8779 14.7468C26.8779 14.6153 26.9343 14.5214 27.0094 14.4275C27.1784 14.2585 27.4789 14.2585 27.6479 14.4275C27.723 14.5214 27.7793 14.6153 27.7793 14.7468C27.7793 14.8782 27.723 14.9721 27.6479 15.066C27.554 15.1411 27.4601 15.1975 27.3286 15.1975C27.1972 15.1975 27.1033 15.1411 27.0094 15.066Z" fill="#030303"/>
<path fill-rule="evenodd" clip-rule="evenodd" d="M25.6944 16.3053C25.6193 16.2302 25.563 16.1175 25.563 15.986C25.563 15.8546 25.6193 15.7607 25.6944 15.6668C25.8635 15.4978 26.1639 15.4978 26.3329 15.6668C26.408 15.7419 26.4644 15.8546 26.4644 15.986C26.4644 16.1175 26.408 16.2114 26.3329 16.3053C26.239 16.3992 26.1451 16.4367 26.0137 16.4367C25.8822 16.4367 25.7696 16.3804 25.6944 16.3053Z" fill="#030303"/>
<path fill-rule="evenodd" clip-rule="evenodd" d="M24.4364 17.5631C24.3425 17.488 24.2861 17.3753 24.2861 17.2439C24.2861 17.1124 24.3425 17.0185 24.4364 16.9246C24.6242 16.7556 24.9246 16.7556 25.1312 16.9246C25.2251 16.9997 25.2814 17.1124 25.2814 17.2439C25.2814 17.3753 25.2251 17.488 25.1312 17.5631C25.0373 17.657 24.9058 17.6946 24.7932 17.6946C24.6617 17.6946 24.549 17.6758 24.4364 17.5631Z" fill="#030303"/>
<path fill-rule="evenodd" clip-rule="evenodd" d="M23.2345 18.8209C23.1406 18.7458 23.103 18.6331 23.103 18.5017C23.103 18.3702 23.1594 18.2763 23.2345 18.1824C23.4035 18.0134 23.704 18.0134 23.873 18.1824C23.9669 18.2575 24.0044 18.3702 24.0044 18.5017C24.0044 18.6331 23.9481 18.7458 23.873 18.8209C23.7979 18.9148 23.6852 18.9524 23.5537 18.9524C23.4411 18.9711 23.3096 18.9336 23.2345 18.8209Z" fill="#030303"/>
<path fill-rule="evenodd" clip-rule="evenodd" d="M21.7886 19.7605C21.7886 19.629 21.8449 19.5351 21.92 19.4412C22.089 19.2722 22.3895 19.2722 22.5585 19.4412C22.6524 19.5351 22.69 19.629 22.69 19.7605C22.69 19.8919 22.6336 19.9858 22.5585 20.0797C22.4834 20.1548 22.3707 20.2112 22.2393 20.2112C22.1078 20.2112 22.0139 20.1548 21.92 20.0797C21.8261 20.0046 21.7886 19.8919 21.7886 19.7605Z" fill="#030303"/>
<path fill-rule="evenodd" clip-rule="evenodd" d="M19.441 22.5397C19.3659 22.4645 19.3096 22.3519 19.3096 22.2204C19.3096 22.089 19.3659 21.9951 19.441 21.9012C19.61 21.7322 19.9105 21.7322 20.0795 21.9012C20.1734 21.9951 20.211 22.089 20.211 22.2204C20.211 22.3519 20.1546 22.4458 20.0795 22.5397C20.0044 22.6336 19.8917 22.6711 19.7603 22.6711C19.6476 22.6899 19.5349 22.6523 19.441 22.5397Z" fill="#030303"/>
<path fill-rule="evenodd" clip-rule="evenodd" d="M18.1453 23.7975C18.0515 23.7224 17.9951 23.6097 17.9951 23.4782C17.9951 23.3468 18.0515 23.2529 18.1453 23.159C18.3331 22.99 18.6336 22.99 18.8402 23.159C18.9341 23.2529 18.9904 23.3468 18.9904 23.4782C18.9904 23.6097 18.9341 23.7036 18.8402 23.7975C18.7463 23.8914 18.6148 23.9289 18.5022 23.9289C18.3519 23.9477 18.2392 23.8914 18.1453 23.7975Z" fill="#030303"/>
<path fill-rule="evenodd" clip-rule="evenodd" d="M16.9249 25.0748C16.8498 24.9997 16.7935 24.887 16.7935 24.7556C16.7935 24.6241 16.8498 24.5114 16.9249 24.4363C17.0939 24.2673 17.3944 24.2673 17.5634 24.4363C17.6385 24.5114 17.6949 24.6241 17.6949 24.7556C17.6949 24.887 17.6385 24.9809 17.5634 25.0748C17.4695 25.1687 17.3756 25.2063 17.2442 25.2063C17.1127 25.2063 17.0376 25.1499 16.9249 25.0748Z" fill="#030303"/>
<path fill-rule="evenodd" clip-rule="evenodd" d="M15.6666 26.3326C15.5727 26.2575 15.5352 26.1448 15.5352 26.0134C15.5352 25.8819 15.5915 25.788 15.6666 25.6941C15.8356 25.5251 16.1361 25.5251 16.3051 25.6941C16.3802 25.788 16.4366 25.8819 16.4366 26.0134C16.4366 26.1448 16.3802 26.2575 16.3051 26.3326C16.2112 26.4265 16.1173 26.4641 15.9859 26.4641C15.8732 26.4641 15.7417 26.4265 15.6666 26.3326Z" fill="#030303"/>
<path fill-rule="evenodd" clip-rule="evenodd" d="M14.3709 27.5914C14.277 27.5163 14.2207 27.4036 14.2207 27.2722C14.2207 27.1407 14.277 27.0468 14.3709 26.9529C14.5587 26.7839 14.8592 26.7839 15.0282 26.9529C15.1221 27.0468 15.1784 27.1407 15.1784 27.2722C15.1784 27.4036 15.1221 27.5163 15.0282 27.5914C14.9343 27.6665 14.8029 27.7229 14.6902 27.7229C14.5587 27.7229 14.4461 27.6853 14.3709 27.5914Z" fill="#030303"/>
<path fill-rule="evenodd" clip-rule="evenodd" d="M13.1315 28.8492C13.0376 28.7553 13 28.6614 13 28.53C13 28.3985 13.0563 28.3046 13.1315 28.2107C13.3005 28.0417 13.6009 28.0417 13.7699 28.2107C13.8638 28.3046 13.9014 28.3985 13.9014 28.53C13.9014 28.6614 13.8451 28.7553 13.7699 28.8492C13.6948 28.9243 13.5822 28.9807 13.4507 28.9807C13.3568 28.9995 13.2441 28.9431 13.1315 28.8492Z" fill="#030303"/>
<path fill-rule="evenodd" clip-rule="evenodd" d="M13.7699 13.7701C13.8451 13.6762 13.9014 13.5823 13.9014 13.4509C13.9014 13.3194 13.8451 13.2255 13.7699 13.1316C13.6009 12.9626 13.3005 12.9626 13.1315 13.1316C13.0376 13.2255 13 13.3194 13 13.4509C13 13.5823 13.0563 13.6762 13.1315 13.7701C13.2066 13.8452 13.3192 13.9016 13.4507 13.9016C13.5822 13.9204 13.6948 13.8828 13.7699 13.7701Z" fill="#030303"/>
<path fill-rule="evenodd" clip-rule="evenodd" d="M15.0282 15.066C15.1221 14.9721 15.1784 14.8782 15.1784 14.7468C15.1784 14.6153 15.1221 14.5214 15.0282 14.4275C14.8404 14.2585 14.5399 14.2585 14.3333 14.4275C14.2394 14.5214 14.1831 14.6153 14.1831 14.7468C14.1831 14.8782 14.2394 14.9721 14.3333 15.066C14.4272 15.1411 14.5587 15.1975 14.6714 15.1975C14.8028 15.1787 14.9343 15.1411 15.0282 15.066Z" fill="#030303"/>
<path fill-rule="evenodd" clip-rule="evenodd" d="M16.3051 16.3053C16.3802 16.2302 16.4366 16.1175 16.4366 15.986C16.4366 15.8546 16.3802 15.7607 16.3051 15.6668C16.1361 15.4978 15.8356 15.4978 15.6666 15.6668C15.5915 15.7419 15.5352 15.8546 15.5352 15.986C15.5352 16.1175 15.5915 16.2114 15.6666 16.3053C15.7605 16.3992 15.8544 16.4367 15.9859 16.4367C16.0985 16.4367 16.2112 16.3804 16.3051 16.3053Z" fill="#030303"/>
<path fill-rule="evenodd" clip-rule="evenodd" d="M17.5634 17.5631C17.6385 17.488 17.6949 17.3753 17.6949 17.2439C17.6949 17.1124 17.6385 17.0185 17.5634 16.9246C17.3944 16.7556 17.0939 16.7556 16.9249 16.9246C16.8498 16.9997 16.7935 17.1124 16.7935 17.2439C16.7935 17.3753 16.8498 17.488 16.9249 17.5631C17.0188 17.657 17.1127 17.6946 17.2442 17.6946C17.3568 17.6946 17.4695 17.6758 17.5634 17.5631Z" fill="#030303"/>
<path fill-rule="evenodd" clip-rule="evenodd" d="M18.8026 18.8209C18.8965 18.7458 18.9529 18.6331 18.9529 18.5017C18.9529 18.3702 18.8965 18.2763 18.8026 18.1824C18.6336 18.0134 18.3144 18.0134 18.1453 18.1824C18.0515 18.2575 17.9951 18.3702 17.9951 18.5017C17.9951 18.6331 18.0515 18.7458 18.1453 18.8209C18.2392 18.9148 18.3707 18.9524 18.4834 18.9524C18.596 18.9711 18.7275 18.9336 18.8026 18.8209Z" fill="#030303"/>
<path fill-rule="evenodd" clip-rule="evenodd" d="M20.211 19.7605C20.211 19.629 20.1546 19.5351 20.0795 19.4412C19.9105 19.2722 19.61 19.2722 19.441 19.4412C19.3471 19.5351 19.3096 19.629 19.3096 19.7605C19.3096 19.8919 19.3659 19.9858 19.441 20.0797C19.5161 20.1548 19.6288 20.2112 19.7603 20.2112C19.8917 20.2112 19.9856 20.1548 20.0795 20.0797C20.1734 20.0046 20.211 19.8919 20.211 19.7605Z" fill="#030303"/>
<path fill-rule="evenodd" clip-rule="evenodd" d="M21.3378 21.357C21.4317 21.2631 21.4693 21.1693 21.4693 21.0378C21.4693 20.9063 21.4129 20.8125 21.3378 20.7186C21.1688 20.5495 20.8683 20.5495 20.6993 20.7186C20.6054 20.8125 20.5679 20.9063 20.5679 21.0378C20.5679 21.1693 20.6242 21.2631 20.6993 21.357C20.7744 21.4322 20.8871 21.4885 21.0186 21.4885C21.15 21.4885 21.2627 21.4322 21.3378 21.357Z" fill="#030303"/>
<path fill-rule="evenodd" clip-rule="evenodd" d="M22.5961 22.5397C22.69 22.4645 22.7463 22.3519 22.7463 22.2204C22.7463 22.089 22.69 21.9951 22.5961 21.9012C22.4083 21.7322 22.1078 21.7322 21.9388 21.9012C21.8449 21.9951 21.7886 22.089 21.7886 22.2204C21.7886 22.3519 21.8449 22.4458 21.9388 22.5397C22.0327 22.6336 22.1642 22.6711 22.2768 22.6711C22.3707 22.6899 22.5022 22.6523 22.5961 22.5397Z" fill="#030303"/>
<path fill-rule="evenodd" clip-rule="evenodd" d="M23.873 23.7975C23.9481 23.7224 24.0044 23.6097 24.0044 23.4782C24.0044 23.3468 23.9481 23.2529 23.873 23.159C23.704 22.99 23.4035 22.99 23.2345 23.159C23.1594 23.2529 23.103 23.3468 23.103 23.4782C23.103 23.6097 23.1594 23.7036 23.2345 23.7975C23.3284 23.8914 23.4223 23.9289 23.5537 23.9289C23.6476 23.9477 23.7791 23.8914 23.873 23.7975Z" fill="#030303"/>
<path fill-rule="evenodd" clip-rule="evenodd" d="M25.1313 25.0748C25.2064 24.9997 25.2627 24.887 25.2627 24.7556C25.2627 24.6241 25.2064 24.5114 25.1313 24.4363C24.9623 24.2673 24.6618 24.2673 24.4928 24.4363C24.4177 24.5114 24.3613 24.6241 24.3613 24.7556C24.3613 24.887 24.4177 24.9809 24.4928 25.0748C24.5867 25.1687 24.6806 25.2063 24.812 25.2063C24.9435 25.2063 25.0374 25.1499 25.1313 25.0748Z" fill="#030303"/>
<path fill-rule="evenodd" clip-rule="evenodd" d="M26.3144 26.3326C26.4083 26.2575 26.4458 26.1448 26.4458 26.0134C26.4458 25.8819 26.3895 25.788 26.3144 25.6941C26.1454 25.5251 25.8449 25.5251 25.6759 25.6941C25.6008 25.788 25.5444 25.8819 25.5444 26.0134C25.5444 26.1448 25.6008 26.2575 25.6759 26.3326C25.7698 26.4265 25.8637 26.4641 25.9951 26.4641C26.1078 26.4641 26.2393 26.4265 26.3144 26.3326Z" fill="#030303"/>
<path fill-rule="evenodd" clip-rule="evenodd" d="M27.6479 27.5914C27.7418 27.5163 27.7793 27.4036 27.7793 27.2722C27.7793 27.1407 27.723 27.0468 27.6479 26.9529C27.4789 26.7839 27.1784 26.7839 27.0094 26.9529C26.9155 27.0468 26.8779 27.1407 26.8779 27.2722C26.8779 27.4036 26.9343 27.5163 27.0094 27.5914C27.0845 27.6665 27.1972 27.7229 27.3286 27.7229C27.4601 27.7229 27.5728 27.6853 27.6479 27.5914Z" fill="#030303"/>
<path fill-rule="evenodd" clip-rule="evenodd" d="M28.9056 28.8492C28.9995 28.7553 29.0559 28.6614 29.0559 28.53C29.0559 28.3985 28.9995 28.3046 28.9056 28.2107C28.7179 28.0417 28.4174 28.0417 28.2484 28.2107C28.1545 28.3046 28.0981 28.3985 28.0981 28.53C28.0981 28.6614 28.1545 28.7553 28.2484 28.8492C28.3423 28.9243 28.4737 28.9807 28.5864 28.9807C28.6803 28.9995 28.793 28.9431 28.9056 28.8492Z" fill="#030303"/>
<path fill-rule="evenodd" clip-rule="evenodd" d="M16.7557 14.1267C18.0327 13.2816 19.4411 12.8873 20.9998 12.8685C22.5209 12.8685 23.9293 13.2816 25.2439 14.1267L27.9481 11.4225C25.826 9.8075 23.535 9 20.9998 9C18.4646 9 16.136 9.8075 14.0703 11.4225L16.7557 14.1267Z" fill="#030303"/>
<path fill-rule="evenodd" clip-rule="evenodd" d="M14.0516 25.2254C13.1877 23.9109 12.7746 22.5212 12.7746 21.0189C12.7746 19.4978 13.1877 18.0893 14.0516 16.8124L11.3662 14.127C9.78872 16.1927 9 18.4837 9 21.0377C9 23.5541 9.78872 25.8639 11.3849 27.9671L14.0516 25.2254Z" fill="#030303"/>
<path fill-rule="evenodd" clip-rule="evenodd" d="M25.2253 27.9102C23.9483 28.774 22.5399 29.2247 21.0188 29.2435C19.4601 29.2435 18.0329 28.8303 16.7559 27.9289L14.0518 30.6143C16.1362 32.2481 18.4648 33.0556 21.0188 33.0368C23.554 33.0181 25.845 32.1918 27.9107 30.6143L25.2253 27.9102Z" fill="#030303"/>
<path fill-rule="evenodd" clip-rule="evenodd" d="M27.873 16.775C28.7369 18.0895 29.1876 19.5167 29.15 21.0566C29.1312 22.5589 28.6993 23.9298 27.873 25.188L30.5772 27.8734C32.1735 25.8077 32.9997 23.5166 32.9997 21.0002C33.0185 18.4463 32.211 16.1177 30.5772 14.0332L27.873 16.775Z" fill="#030303"/>
<path fill-rule="evenodd" clip-rule="evenodd" d="M30.6901 28.7559C31.723 28.7559 32.5868 29.6009 32.5868 30.6525C32.5868 31.6854 31.7418 32.5492 30.6901 32.5492C29.6573 32.5492 28.7935 31.7042 28.7935 30.6525C28.7935 29.6009 29.6385 28.7559 30.6901 28.7559Z" fill="#030303"/>
<path fill-rule="evenodd" clip-rule="evenodd" d="M11.3471 28.7559C12.38 28.7559 13.2251 29.6009 13.2251 30.6525C13.2251 31.6854 12.38 32.5492 11.3471 32.5492C10.3143 32.5492 9.46924 31.7042 9.46924 30.6525C9.46924 29.6009 10.3143 28.7559 11.3471 28.7559Z" fill="#030303"/>
<path fill-rule="evenodd" clip-rule="evenodd" d="M30.7275 9.41309C31.7604 9.41309 32.6054 10.2581 32.6054 11.3098C32.6054 12.3614 31.7604 13.2065 30.7275 13.2065C29.6947 13.2065 28.8496 12.3614 28.8496 11.3098C28.8496 10.2581 29.6947 9.41309 30.7275 9.41309Z" fill="#030303"/>
<path fill-rule="evenodd" clip-rule="evenodd" d="M11.3098 9.41309C12.3426 9.41309 13.2065 10.2581 13.2065 11.291C13.2065 12.3238 12.3614 13.1689 11.3098 13.1689C10.2769 13.1689 9.41309 12.3238 9.41309 11.291C9.41309 10.2581 10.2581 9.41309 11.3098 9.41309Z" fill="#030303"/>
</svg>

<svg xmlns="http://www.w3.org/2000/svg" width="42" height="42" fill="none"><path fill="#F3F3F3" d="M21 41c11.046 0 20-8.954 20-20S32.046 1 21 1 1 9.954 1 21s8.954 20 20 20Z"/><path fill="#030303" fill-rule="evenodd" d="M28.21 13.77c-.093-.094-.15-.188-.15-.32 0-.13.057-.224.15-.318a.54.54 0 0 1 .696 0c.094.094.15.187.15.319 0 .131-.056.225-.15.32a.585.585 0 0 1-.338.13.379.379 0 0 1-.357-.13Zm-1.2 1.296a.49.49 0 0 1-.132-.32.49.49 0 0 1 .131-.319.465.465 0 0 1 .639 0 .49.49 0 0 1 .131.32.49.49 0 0 1-.131.319.49.49 0 0 1-.32.131.49.49 0 0 1-.319-.131Zm-1.316 1.239a.453.453 0 0 1-.131-.319.49.49 0 0 1 .131-.32.465.465 0 0 1 .639 0 .453.453 0 0 1 .131.32.49.49 0 0 1-.131.32.412.412 0 0 1-.32.13.453.453 0 0 1-.319-.13Zm-1.258 1.258a.401.401 0 0 1-.15-.32c0-.13.056-.224.15-.318a.54.54 0 0 1 .695 0 .4.4 0 0 1 .15.319.401.401 0 0 1-.15.32.482.482 0 0 1-.338.13c-.131 0-.244-.018-.357-.13Zm-1.201 1.257c-.094-.074-.132-.187-.132-.318a.49.49 0 0 1 .131-.32.465.465 0 0 1 .639 0c.094.076.131.188.131.32a.453.453 0 0 1-.131.319c-.075.094-.188.131-.32.131a.318.318 0 0 1-.319-.131Zm-1.446.94a.49.49 0 0 1 .131-.319.465.465 0 0 1 .638 0 .412.412 0 0 1 .132.32.49.49 0 0 1-.132.319.453.453 0 0 1-.319.131.49.49 0 0 1-.319-.131c-.094-.075-.131-.188-.131-.32Zm-2.348 2.78a.453.453 0 0 1-.131-.32.49.49 0 0 1 .131-.319.465.465 0 0 1 .639 0 .412.412 0 0 1 .131.32.49.49 0 0 1-.131.319c-.076.094-.188.131-.32.131-.112.019-.225-.019-.319-.131Zm-1.296 1.257a.401.401 0 0 1-.15-.319c0-.131.056-.225.15-.319a.54.54 0 0 1 .695 0c.094.094.15.188.15.32 0 .13-.056.225-.15.319a.482.482 0 0 1-.338.13.408.408 0 0 1-.357-.13Zm-1.22 1.278a.453.453 0 0 1 0-.639.465.465 0 0 1 .638 0 .453.453 0 0 1 .132.32.49.49 0 0 1-.132.319.412.412 0 0 1-.319.131c-.131 0-.206-.056-.32-.131Zm-1.258 1.258c-.094-.075-.132-.188-.132-.32a.49.49 0 0 1 .132-.319.465.465 0 0 1 .638 0 .49.49 0 0 1 .132.32.453.453 0 0 1-.132.319.412.412 0 0 1-.32.131c-.112 0-.243-.037-.318-.131Zm-1.297 1.258a.401.401 0 0 1-.15-.319c0-.131.057-.225.15-.32.189-.168.49-.168.658 0 .094.095.15.189.15.32a.401.401 0 0 1-.15.32.585.585 0 0 1-.338.13c-.131 0-.244-.037-.32-.13Zm-1.238 1.259a.412.412 0 0 1-.132-.32.49.49 0 0 1 .132-.32.465.465 0 0 1 .638 0 .412.412 0 0 1 .131.32.49.49 0 0 1-.131.32.453.453 0 0 1-.32.13c-.093.02-.206-.037-.318-.13Zm.638-15.08a.49.49 0 0 0 .131-.32.49.49 0 0 0-.131-.318.465.465 0 0 0-.638 0 .412.412 0 0 0-.132.319.49.49 0 0 0 .132.32.453.453 0 0 0 .319.13c.131.02.244-.018.319-.13Zm1.258 1.296c.094-.094.15-.188.15-.32 0-.13-.056-.225-.15-.319a.54.54 0 0 0-.695 0c-.094.094-.15.188-.15.32 0 .131.056.225.15.319a.585.585 0 0 0 .338.131.744.744 0 0 0 .357-.131Zm1.277 1.239a.453.453 0 0 0 .132-.319.49.49 0 0 0-.132-.32.465.465 0 0 0-.638 0 .453.453 0 0 0-.132.32.49.49 0 0 0 .132.32.412.412 0 0 0 .319.13.533.533 0 0 0 .32-.13Zm1.258 1.258a.453.453 0 0 0 .132-.32.49.49 0 0 0-.132-.318.465.465 0 0 0-.638 0 .453.453 0 0 0 0 .638.412.412 0 0 0 .32.132c.112 0 .224-.02.318-.132Zm1.24 1.257a.401.401 0 0 0 .15-.318c0-.132-.056-.226-.15-.32a.49.49 0 0 0-.658 0 .401.401 0 0 0-.15.32.4.4 0 0 0 .15.319.482.482 0 0 0 .338.131.318.318 0 0 0 .32-.131Zm1.408.94a.49.49 0 0 0-.131-.319.465.465 0 0 0-.639 0 .412.412 0 0 0-.131.32.49.49 0 0 0 .131.319.453.453 0 0 0 .32.131.49.49 0 0 0 .319-.131c.093-.075.131-.188.131-.32Zm1.127 1.597a.412.412 0 0 0 .131-.32.49.49 0 0 0-.131-.318.465.465 0 0 0-.639 0 .412.412 0 0 0-.131.319.49.49 0 0 0 .131.319.453.453 0 0 0 .639 0Zm1.258 1.183a.401.401 0 0 0 .15-.32c0-.131-.056-.225-.15-.319-.188-.169-.488-.169-.657 0-.094.094-.15.188-.15.32 0 .13.056.225.15.319a.482.482 0 0 0 .338.131.346.346 0 0 0 .32-.131Zm1.277 1.257a.453.453 0 0 0 .131-.319.49.49 0 0 0-.131-.319.465.465 0 0 0-.639 0 .49.49 0 0 0-.131.32.49.49 0 0 0 .131.319.412.412 0 0 0 .32.13c.094.02.225-.037.319-.13Zm1.258 1.278a.453.453 0 0 0 0-.639.465.465 0 0 0-.638 0 .453.453 0 0 0-.132.32.49.49 0 0 0 .132.319.412.412 0 0 0 .319.131.49.49 0 0 0 .32-.131Zm1.183 1.258c.094-.075.132-.188.132-.32a.49.49 0 0 0-.132-.319.465.465 0 0 0-.638 0 .49.49 0 0 0-.132.32c0 .13.057.244.132.319a.412.412 0 0 0 .32.131c.112 0 .243-.037.318-.131Zm1.334 1.258c.094-.075.131-.187.131-.319a.49.49 0 0 0-.131-.32.465.465 0 0 0-.639 0 .412.412 0 0 0-.131.32c0 .132.056.244.131.32a.453.453 0 0 0 .32.13c.131 0 .244-.037.319-.13Zm1.258 1.259c.094-.095.15-.189.15-.32 0-.132-.056-.225-.15-.32-.188-.168-.489-.168-.658 0-.094.095-.15.188-.15.32 0 .131.056.225.15.32a.585.585 0 0 0 .338.13c.094.02.207-.037.32-.13Zm-12.15-14.723c1.277-.845 2.685-1.24 4.244-1.259 1.52 0 2.93.414 4.244 1.259l2.704-2.705C25.826 9.807 23.535 9 21 9s-4.864.807-6.93 2.422l2.686 2.705Zm-2.704 11.098c-.864-1.314-1.277-2.704-1.277-4.206 0-1.521.413-2.93 1.277-4.207l-2.686-2.685C9.79 16.193 9 18.484 9 21.037c0 2.517.789 4.827 2.385 6.93l2.667-2.742Zm11.173 2.685c-1.277.864-2.685 1.315-4.206 1.334-1.559 0-2.986-.414-4.263-1.315l-2.704 2.685c2.084 1.634 4.413 2.442 6.967 2.423 2.535-.019 4.826-.845 6.892-2.423l-2.686-2.704Zm2.648-11.135c.864 1.315 1.315 2.742 1.277 4.282-.019 1.502-.45 2.873-1.277 4.131l2.704 2.685C32.173 25.808 33 23.517 33 21c.019-2.554-.789-4.882-2.423-6.967l-2.704 2.742Zm2.817 11.981c1.033 0 1.897.845 1.897 1.896a1.903 1.903 0 0 1-1.897 1.897 1.903 1.903 0 0 1-1.896-1.896c0-1.052.845-1.897 1.896-1.897Zm-19.343 0c1.033 0 1.878.845 1.878 1.896 0 1.033-.845 1.897-1.878 1.897a1.887 1.887 0 0 1-1.878-1.896c0-1.052.845-1.897 1.878-1.897Zm19.38-19.343c1.033 0 1.878.845 1.878 1.897a1.887 1.887 0 0 1-1.877 1.896 1.888 1.888 0 0 1-1.878-1.896c0-1.052.845-1.897 1.877-1.897Zm-19.417 0c1.033 0 1.896.845 1.896 1.878a1.888 1.888 0 0 1-1.896 1.878c-1.033 0-1.897-.845-1.897-1.878s.845-1.878 1.897-1.878Z" clip-rule="evenodd"/></svg>
